packages/tokens/icons/delete/size24Px.svg

<svg viewBox="0 0 24 24" fill="none" xmlns="http://www.w3.org/2000/svg" width="1em" height="1em"><path d="M7.06253 20.1536L5.55408 5.5L18.4459 5.5L16.9374 20.1536C16.8586 20.9185 16.2142 21.5 15.4453 21.5H8.55465C7.78569 21.5 7.14127 20.9185 7.06253 20.1536Z" stroke="currentColor" stroke-linecap="round"/><path d="M9.99997 9.5L9.99997 17.5" stroke="currentColor" stroke-linecap="round"/><path d="M14 9.5L14 17.5" stroke="currentColor" stroke-linecap="round"/><path d="M4.5 5.5L19.5 5.5" stroke="currentColor" stroke-linecap="round"/><path d="M15.5 5V4.5C15.5 3.39543 14.6046 2.5 13.5 2.5L10.5 2.5C9.39543 2.5 8.5 3.39543 8.5 4.5V5" stroke="currentColor"/></svg>

<svg xmlns="http://www.w3.org/2000/svg" fill="none" viewBox="0 0 24 24" width="1em" height="1em"><path stroke="currentColor" stroke-linecap="round" d="M7.063 20.154 5.554 5.5h12.892l-1.509 14.654a1.5 1.5 0 0 1-1.492 1.346h-6.89a1.5 1.5 0 0 1-1.492-1.346ZM10 9.5v8m4-8v8m-9.5-12h15"/><path stroke="currentColor" d="M15.5 5v-.5a2 2 0 0 0-2-2h-3a2 2 0 0 0-2 2V5"/></svg>
